frontend/public/svg/e-commerce/tag-2.svg

<svg width="151" height="135" viewBox="0 0 151 135" fill="none" xmlns="http://www.w3.org/2000/svg">
<path d="M123.499 13.5153C127.41 13.5153 131.319 13.4907 135.229 13.5281C136.569 13.4638 137.911 13.5719 139.222 13.8492C139.769 13.9883 140.28 14.2372 140.726 14.5808C141.172 14.9244 141.544 15.3556 141.818 15.8477C142.092 16.3398 142.263 16.8827 142.32 17.443C142.377 18.0033 142.318 18.5691 142.15 19.1063C140.046 27.1189 137.883 35.1211 135.905 43.1632C134.007 50.8877 132.38 58.679 130.458 66.3973C130.018 67.8911 129.187 69.2392 128.051 70.3045C126.018 72.24 123.847 74.0246 121.553 75.6431C102.195 89.4787 82.8187 103.287 63.423 117.07C57.8474 121.045 52.3499 125.129 46.7343 129.046C44.4225 130.634 42.0075 132.066 39.5053 133.333C35.9532 135.16 33.7729 134.624 31.3399 131.426C29.6419 129.194 28.0089 126.902 26.5078 124.534C18.5176 111.933 10.5555 99.3126 2.6217 86.6742C2.43948 86.3913 2.2737 86.0979 2.12495 85.796C-1.08585 79.1013 0.211076 77.0726 3.98436 73.9484C16.3504 63.7098 28.6141 53.3398 41.225 43.4107C52.9544 34.176 65.1071 25.4802 77.0082 16.4608C80.2728 13.9871 83.695 12.6376 87.8804 12.7852C94.726 13.0209 101.584 12.8469 108.435 12.9756C110.378 13.0117 111.744 12.5983 112.998 10.9319C117.742 4.62578 124.325 1.44496 132.064 0.986182C136.052 0.7499 140.099 1.30058 144.102 1.68322C145.32 1.88132 146.479 2.34767 147.495 3.04845C148.376 3.51814 149.066 4.2796 149.446 5.20238C149.827 6.12517 149.874 7.15191 149.581 8.10594C149.287 9.05992 148.67 9.88192 147.837 10.4309C147.003 10.98 146.004 11.2218 145.012 11.1149C143.68 10.9717 142.368 10.6817 141.099 10.2499C134.864 8.48766 128.967 9.0361 123.46 12.4609C123.473 12.8109 123.486 13.1626 123.499 13.5153ZM7.50161 81.8094C17.329 96.68 27.6387 110.505 37.9865 124.552C39.42 123.597 40.5463 122.895 41.6246 122.124C58.7327 109.791 75.9042 97.5438 92.9106 85.0721C102.226 78.2409 111.287 71.0645 120.383 63.9376C121.473 63.0126 122.257 61.7795 122.634 60.4004C125.854 48.3941 128.945 36.3531 132.064 24.3198C132.252 23.592 132.361 22.8437 132.603 21.6144L116.213 21.0064C115.815 22.7785 115.51 24.1451 115.221 25.4348C116.32 26.202 117.19 26.7153 117.954 27.3592C121.125 30.0371 122.116 33.9271 120.449 37.6728C119.698 39.4395 118.548 41.0085 117.09 42.2566C115.632 43.5047 113.904 44.3981 112.043 44.8669C105.642 46.5832 100.319 42.2575 100.365 35.656C100.392 31.9753 101.893 29.0374 104.874 27.1032C107.294 25.5332 107.882 23.5071 107.598 20.9224C107.407 20.8024 107.197 20.7161 106.977 20.6667C100.469 20.4738 93.9621 20.2432 87.4531 20.169C86.3512 20.2222 85.2912 20.6078 84.4123 21.275C63.9933 36.313 43.3908 51.1155 23.9724 67.4599C18.4841 72.0726 13.1547 76.8724 7.50161 81.8094ZM106.915 31.8251C106.742 32.9943 106.641 34.1731 106.612 35.3549C106.678 36.9957 107.495 38.0747 109.294 38.076C110.81 38.076 113.211 36.3452 113.298 35.0568C113.415 33.3569 112.009 32.8416 110.773 32.4465C109.505 32.1447 108.215 31.937 106.915 31.8251Z" fill="black"/>
</svg>

<svg xmlns="http://www.w3.org/2000/svg" width="151" height="135" fill="none" viewBox="0 0 151 135"><path fill="#000" d="M123.499 13.515c3.911 0 7.82-.024 11.73.013 1.34-.064 2.682.044 3.993.321a4.13 4.13 0 0 1 2.596 1.999 4.14 4.14 0 0 1 .332 3.258c-2.104 8.013-4.267 16.015-6.245 24.057-1.898 7.725-3.525 15.516-5.447 23.234a8.74 8.74 0 0 1-2.407 3.907 57.5 57.5 0 0 1-6.498 5.34 26245 26245 0 0 1-58.13 41.426c-5.576 3.975-11.073 8.059-16.689 11.976a63 63 0 0 1-7.229 4.287c-3.552 1.827-5.732 1.291-8.165-1.907-1.698-2.232-3.331-4.524-4.832-6.892a9873 9873 0 0 1-23.886-37.86 9 9 0 0 1-.497-.878c-3.21-6.695-1.914-8.723 1.86-11.848C16.35 63.71 28.614 53.34 41.224 43.411c11.73-9.235 23.882-17.93 35.783-26.95 3.265-2.474 6.687-3.823 10.872-3.676 6.846.236 13.704.062 20.555.19 1.943.037 3.309-.377 4.563-2.043 4.744-6.306 11.327-9.487 19.066-9.946 3.988-.236 8.035.315 12.038.697a8.3 8.3 0 0 1 3.393 1.365 4.294 4.294 0 0 1 2.086 5.058 4.3 4.3 0 0 1-4.569 3.009 18.2 18.2 0 0 1-3.913-.865c-6.235-1.762-12.132-1.214-17.639 2.21zM7.502 81.81c9.827 14.871 20.137 28.696 30.485 42.743 1.433-.955 2.56-1.657 3.638-2.428 17.108-12.333 34.28-24.58 51.286-37.052 9.315-6.831 18.376-14.008 27.472-21.134a7.1 7.1 0 0 0 2.251-3.538c3.22-12.006 6.311-24.047 9.43-36.08.188-.728.297-1.476.539-2.706l-16.39-.608-.992 4.429c1.099.767 1.969 1.28 2.733 1.924 3.171 2.678 4.162 6.568 2.495 10.314a12.44 12.44 0 0 1-8.406 7.194c-6.401 1.716-11.724-2.61-11.678-9.211.027-3.68 1.528-6.619 4.509-8.553 2.42-1.57 3.008-3.596 2.724-6.18a2 2 0 0 0-.621-.256c-6.508-.193-13.015-.424-19.524-.498a5.47 5.47 0 0 0-3.04 1.106c-20.42 15.038-41.022 29.84-60.44 46.185-5.489 4.613-10.818 9.412-16.471 14.35m99.413-49.984a29 29 0 0 0-.303 3.53c.066 1.64.883 2.72 2.682 2.721 1.516 0 3.917-1.73 4.004-3.02.117-1.7-1.289-2.214-2.525-2.61a26.5 26.5 0 0 0-3.858-.62"/></svg>
